src/assets/icons/filters/categories/pc.svg

<svg width="44" height="42" viewBox="0 0 44 42" fill="none" xmlns="http://www.w3.org/2000/svg">
<path fill-rule="evenodd" clip-rule="evenodd" d="M38.5 20.2703V4.0865C38.4989 3.00303 38.068 1.96425 37.3019 1.19811C36.5358 0.431984 35.497 0.00109203 34.4135 0H4.0865C3.00303 0.00109203 1.96425 0.431984 1.19811 1.19811C0.431984 1.96425 0.00109203 3.00303 0 4.0865V27.4615C0 30.9059 2.56987 32.9615 6.875 32.9615H14.7881C14.2532 35.4654 12.925 38.423 9.625 38.423C9.26033 38.423 8.91059 38.5679 8.65273 38.8257C8.39487 39.0836 8.25 39.4333 8.25 39.798C8.25 40.1627 8.39487 40.5124 8.65273 40.7703C8.91059 41.0281 9.26033 41.173 9.625 41.173H28.875C29.2397 41.173 29.5894 41.0281 29.8473 40.7703C30.1051 40.5124 30.25 40.1627 30.25 39.798C30.25 39.4333 30.1051 39.0836 29.8473 38.8257C29.5894 38.5679 29.2397 38.423 28.875 38.423C26.2309 38.423 24.5039 36.5764 23.7242 32.9615H28.0899V33.7081C28.0921 35.687 28.879 37.5843 30.2782 38.9837C31.6774 40.3831 33.5745 41.1705 35.5534 41.173H36.5351C38.5141 41.1705 40.4114 40.3832 41.8108 38.9838C43.2102 37.5844 43.9975 35.6872 44 33.7081V27.4629C44 24.0281 41.6639 21.1351 38.5 20.2703V20.2703Z" fill="#CFD8DC"/>
<path fill-rule="evenodd" clip-rule="evenodd" d="M41.25 33.7081C41.2485 34.9581 40.7513 36.1565 39.8674 37.0404C38.9835 37.9243 37.7851 38.4215 36.5351 38.423H35.5534C34.3035 38.4215 33.1052 37.9243 32.2216 37.0404C31.3379 36.1564 30.841 34.958 30.8399 33.7081V27.4629C30.841 26.213 31.3379 25.0146 32.2216 24.1306C33.1052 23.2467 34.3035 22.7495 35.5534 22.748H36.5351C37.7851 22.7495 38.9835 23.2467 39.8674 24.1306C40.7513 25.0145 41.2485 26.2129 41.25 27.4629V33.7081ZM28.2219 26.0865H2.75V4.0865C2.75 3.3495 3.3495 2.75 4.0865 2.75H34.4135C35.1505 2.75 35.75 3.3495 35.75 4.0865V19.998H35.5534C31.9082 19.998 28.8709 22.6256 28.2219 26.0865ZM6.875 30.2115C4.5265 30.2115 3.5145 29.5405 3.07863 28.8365H28.0899V30.2115H6.875ZM23.1454 38.423H15.3588C16.4271 37.0673 17.1641 35.211 17.5656 32.9615H20.9619C20.9619 33.0495 20.9426 33.1334 20.9605 33.2227C21.384 35.3746 22.1251 37.1209 23.1454 38.423V38.423ZM38.5 4.0865V20.2703C41.6639 21.1351 44 24.0281 44 27.4629V33.7081C43.9975 35.6872 43.2102 37.5844 41.8108 38.9838C40.4114 40.3832 38.5141 41.1705 36.5351 41.173H35.5534C33.5745 41.1705 31.6774 40.3831 30.2782 38.9837C28.879 37.5843 28.0921 35.687 28.0899 33.7081V32.9615H23.7242C24.5039 36.5764 26.2309 38.423 28.875 38.423C29.2397 38.423 29.5894 38.5679 29.8473 38.8257C30.1051 39.0836 30.25 39.4333 30.25 39.798C30.25 40.1627 30.1051 40.5124 29.8473 40.7703C29.5894 41.0281 29.2397 41.173 28.875 41.173H9.625C9.26033 41.173 8.91059 41.0281 8.65273 40.7703C8.39487 40.5124 8.25 40.1627 8.25 39.798C8.25 39.4333 8.39487 39.0836 8.65273 38.8257C8.91059 38.5679 9.26033 38.423 9.625 38.423C12.925 38.423 14.2532 35.4654 14.7881 32.9615H6.875C2.56987 32.9615 0 30.9059 0 27.4615V4.0865C0.00109203 3.00303 0.431984 1.96425 1.19811 1.19811C1.96425 0.431984 3.00303 0.00109203 4.0865 0H34.4135C35.497 0.00109203 36.5358 0.431984 37.3019 1.19811C38.068 1.96425 38.4989 3.00303 38.5 4.0865V4.0865ZM20.2262 4.48525C20.0329 4.29446 19.7874 4.16521 19.5206 4.11382C19.2539 4.06243 18.9779 4.0912 18.7275 4.1965C18.5488 4.26525 18.4113 4.3615 18.2738 4.48525C18.15 4.62275 18.0537 4.774 17.985 4.939C17.8788 5.18924 17.8495 5.46545 17.901 5.73238C17.9524 5.99932 18.0822 6.24489 18.2738 6.43775C18.535 6.699 18.8787 6.8365 19.25 6.8365C19.4311 6.83834 19.6107 6.80403 19.7784 6.73558C19.946 6.66713 20.0983 6.56592 20.2264 6.43787C20.3544 6.30982 20.4556 6.15751 20.5241 5.98986C20.5925 5.8222 20.6268 5.64258 20.625 5.4615C20.625 5.28275 20.5975 5.104 20.515 4.939C20.4463 4.774 20.35 4.62275 20.2262 4.48525V4.48525Z" fill="#253238"/>
<path opacity="0.5" fill-rule="evenodd" clip-rule="evenodd" d="M6.87499 30.2115C4.52649 30.2115 3.51449 29.5405 3.07861 28.8365H28.0899V30.2115H6.87499ZM41.25 33.7081C41.2485 34.9582 40.7513 36.1566 39.8674 37.0405C38.9835 37.9243 37.7851 38.4216 36.5351 38.423H35.5534C34.3035 38.4216 33.1052 37.9243 32.2215 37.0404C31.3379 36.1564 30.841 34.958 30.8399 33.7081V27.4629C30.841 26.213 31.3379 25.0146 32.2215 24.1307C33.1052 23.2467 34.3035 22.7495 35.5534 22.748H36.5351C37.7851 22.7495 38.9835 23.2467 39.8674 24.1306C40.7513 25.0145 41.2485 26.2129 41.25 27.4629V33.7081Z" fill="white"/>
<path fill-rule="evenodd" clip-rule="evenodd" d="M36.1431 24.673C35.7784 24.673 35.4287 24.8179 35.1708 25.0757C34.9129 25.3336 34.7681 25.6833 34.7681 26.048V28.8365C34.7681 29.2012 34.9129 29.5509 35.1708 29.8088C35.4287 30.0666 35.7784 30.2115 36.1431 30.2115C36.5077 30.2115 36.8575 30.0666 37.1153 29.8088C37.3732 29.5509 37.5181 29.2012 37.5181 28.8365V26.048C37.5181 25.6833 37.3732 25.3336 37.1153 25.0757C36.8575 24.8179 36.5077 24.673 36.1431 24.673Z" fill="#253238"/>
</svg>

<svg width="44" height="42" viewBox="0 0 44 42" fill="none" xmlns="http://www.w3.org/2000/svg"><path fill-rule="evenodd" clip-rule="evenodd" d="M38.5 20.27V4.087A4.09 4.09 0 0034.413 0H4.087A4.09 4.09 0 000 4.087v23.375c0 3.444 2.57 5.5 6.875 5.5h7.913c-.535 2.503-1.863 5.461-5.163 5.461a1.375 1.375 0 000 2.75h19.25a1.375 1.375 0 000-2.75c-2.644 0-4.371-1.847-5.15-5.462h4.365v.747a7.473 7.473 0 007.463 7.465h.982A7.474 7.474 0 0044 33.708v-6.245c0-3.435-2.336-6.328-5.5-7.193z" fill="#CFD8DC"/><path fill-rule="evenodd" clip-rule="evenodd" d="M41.25 33.708a4.72 4.72 0 01-4.715 4.715h-.982a4.72 4.72 0 01-4.713-4.715v-6.245a4.72 4.72 0 014.713-4.715h.982a4.72 4.72 0 014.715 4.715v6.245zm-13.028-7.621H2.75v-22c0-.737.6-1.337 1.337-1.337h30.326c.738 0 1.337.6 1.337 1.337v15.911h-.197c-3.645 0-6.682 2.628-7.331 6.088zM6.875 30.212c-2.348 0-3.36-.671-3.796-1.375h25.01v1.375H6.876zm16.27 8.211H15.36c1.068-1.356 1.805-3.212 2.207-5.462h3.396c0 .089-.02.172-.002.262.424 2.152 1.165 3.898 2.185 5.2zM38.5 4.086V20.27c3.164.865 5.5 3.758 5.5 7.193v6.245a7.474 7.474 0 01-7.465 7.465h-.982a7.473 7.473 0 01-7.463-7.465v-.746h-4.366c.78 3.614 2.507 5.461 5.151 5.461a1.375 1.375 0 010 2.75H9.625a1.375 1.375 0 010-2.75c3.3 0 4.628-2.958 5.163-5.462H6.875C2.57 32.962 0 30.907 0 27.462V4.088A4.09 4.09 0 014.087 0h30.326A4.09 4.09 0 0138.5 4.087zm-18.274.4a1.374 1.374 0 00-1.498-.29 1.42 1.42 0 00-.454.29c-.124.137-.22.288-.289.453a1.368 1.368 0 00.289 1.499c.261.261.605.399.976.399a1.362 1.362 0 001.375-1.375c0-.18-.027-.358-.11-.523a1.586 1.586 0 00-.289-.454z" fill="#253238"/><path opacity=".5" fill-rule="evenodd" clip-rule="evenodd" d="M6.875 30.212c-2.349 0-3.36-.671-3.796-1.375h25.01v1.375H6.876zm34.375 3.496a4.72 4.72 0 01-4.715 4.715h-.982a4.72 4.72 0 01-4.713-4.715v-6.245a4.72 4.72 0 014.713-4.715h.982a4.72 4.72 0 014.715 4.715v6.245z" fill="#fff"/><path fill-rule="evenodd" clip-rule="evenodd" d="M36.143 24.673a1.375 1.375 0 00-1.375 1.375v2.789a1.375 1.375 0 102.75 0v-2.789a1.375 1.375 0 00-1.375-1.375z" fill="#253238"/></svg>
